X: 1
T: V\"astg\"ota polska
O: Sweden
R: hambo-polska
Z: 2009 John Chambers <jc:trillian.mit.edu>
S: handwritten MS by JC from the 1970s
M: 3/4
L: 1/8
K: D
|: "D"A>B AG F>A | d>f a2 f2 | "A7"f{gf}e/f/ ge c>e |1,3 "D"d>e f2 d2 :|2,4 d2 d2 z2 :|
K: G=c
|: "G"G2 Bd B>d | e>c Bd B>d |1,3 "D7"d>c Ac A>c | "G"c>B dB G2 :|2,4 "D7"d>c Ad f>a | "G"g2 g2 z2 :|
